X: 1
T:Gan Ainm
S:Paidraig McDonagh, Galway (banjo)
D:Private tape
R:Reel
N:As played
Z:Bernie Stocks
M:4/4
K:D
(3A,B,C || D2FA CDAG | Fddc dAFA | (3GGG AG FAdF | GFED CA,B,C |
D2FA CDAG | Fddc dAFA | GBed cAGE |1 EDCE D2 (3A,B,C :|2 EDCE Defg ||
aafa geeg | fd(3ddc dAFA | GBeB FAde | feed e2fg |
agfa gfeg | fd(3ddc dAFA | GBed cAGE |1 EDCE Defg :|2 EDCE D4 ||
